svgs/sharp-light/quotes.svg

<svg xmlns="http://www.w3.org/2000/svg" viewBox="0 0 576 512"><!--! Font Awesome Pro 6.6.0 by @fontawesome - https://fontawesome.com License - https://fontawesome.com/license (Commercial License) Copyright 2024 Fonticons, Inc. --><path d="M0 88C0 39.4 39.4 0 88 0l8 0 16 0 0 32L96 32l-8 0C57.1 32 32 57.1 32 88l0 8 64 0 32 0 0 32 0 64 0 32-32 0-64 0L0 224l0-32 0-24 0-40L0 96l0-8zm32 40l0 40 0 24 64 0 0-64-64 0zM160 88c0-48.6 39.4-88 88-88l8 0 16 0 0 32-16 0-8 0c-30.9 0-56 25.1-56 56l0 8 64 0 32 0 0 32 0 64 0 32-32 0-64 0-32 0 0-32 0-24 0-40 0-32 0-8zm32 80l0 24 64 0 0-64-64 0 0 40zM576 424c0 48.6-39.4 88-88 88l-8 0-16 0 0-32 16 0 8 0c30.9 0 56-25.1 56-56l0-8-64 0-32 0 0-32 0-64 0-32 32 0 64 0 32 0 0 32 0 24 0 40 0 32 0 8zm-32-40l0-40 0-24-64 0 0 64 64 0zM416 424c0 48.6-39.4 88-88 88l-8 0-16 0 0-32 16 0 8 0c30.9 0 56-25.1 56-56l0-8-64 0-32 0 0-32 0-64 0-32 32 0 64 0 32 0 0 32 0 24 0 40 0 32 0 8zm-32-80l0-24-64 0 0 64 64 0 0-40z"/></svg>

<svg xmlns="http://www.w3.org/2000/svg" viewBox="0 0 576 512"><!--! Font Awesome Pro 6.4.2 by @fontawesome - https://fontawesome.com License - https://fontawesome.com/license (Commercial License) Copyright 2023 Fonticons, Inc. --><path d="M0 88C0 39.4 39.4 0 88 0h8 16V32H96 88C57.1 32 32 57.1 32 88v8H96h32v32 64 32H96 32 0V192 168 128 96 88zm32 40v40 24H96V128H32zM160 88c0-48.6 39.4-88 88-88h8 16V32H256h-8c-30.9 0-56 25.1-56 56v8h64 32v32 64 32H256 192 160V192 168 128 96 88zm32 80v24h64V128H192v40zM576 424c0 48.6-39.4 88-88 88h-8H464V480h16 8c30.9 0 56-25.1 56-56v-8H480 448V384 320 288h32 64 32v32 24 40 32 8zm-32-40V344 320H480v64h64zM416 424c0 48.6-39.4 88-88 88h-8H304V480h16 8c30.9 0 56-25.1 56-56v-8H320 288V384 320 288h32 64 32v32 24 40 32 8zm-32-80V320H320v64h64V344z"/></svg>
